Numix/24/apps/goa-account-google.svg

<?xml version="1.0" encoding="UTF-8" standalone="no"?>
<!-- Generator: Adobe Illustrator 18.1.1, SVG Export Plug-In . SVG Version: 6.00 Build 0)  -->

<svg
   xmlns:dc="http://purl.org/dc/elements/1.1/"
   xmlns:cc="http://creativecommons.org/ns#"
   xmlns:rdf="http://www.w3.org/1999/02/22-rdf-syntax-ns#"
   xmlns:svg="http://www.w3.org/2000/svg"
   xmlns="http://www.w3.org/2000/svg"
   xmlns:sodipodi="http://sodipodi.sourceforge.net/DTD/sodipodi-0.dtd"
   xmlns:inkscape="http://www.inkscape.org/namespaces/inkscape"
   version="1.1"
   id="Layer_1"
   x="0px"
   y="0px"
   width="24"
   height="24"
   viewBox="0 0 24 24"
   enable-background="new 0 0 400 400"
   xml:space="preserve"
   inkscape:version="0.91 r"
   sodipodi:docname="goa-account-google.svg"><metadata
     id="metadata27"><rdf:RDF><cc:Work
         rdf:about=""><dc:format>image/svg+xml</dc:format><dc:type
           rdf:resource="http://purl.org/dc/dcmitype/StillImage" /><dc:title></dc:title></cc:Work></rdf:RDF></metadata><defs
     id="defs25" /><sodipodi:namedview
     pagecolor="#ffffff"
     bordercolor="#666666"
     borderopacity="1"
     objecttolerance="10"
     gridtolerance="10"
     guidetolerance="10"
     inkscape:pageopacity="0"
     inkscape:pageshadow="2"
     inkscape:window-width="1920"
     inkscape:window-height="1056"
     id="namedview23"
     showgrid="true"
     inkscape:zoom="32"
     inkscape:cx="13.088747"
     inkscape:cy="7.9998927"
     inkscape:window-x="0"
     inkscape:window-y="24"
     inkscape:window-maximized="1"
     inkscape:current-layer="Layer_1"><inkscape:grid
       type="xygrid"
       id="grid4155" /></sodipodi:namedview><path
     style="color:#000000;font-style:normal;font-variant:normal;font-weight:normal;font-stretch:normal;font-size:medium;line-height:normal;font-family:sans-serif;text-indent:0;text-align:start;text-decoration:none;text-decoration-line:none;text-decoration-style:solid;text-decoration-color:#000000;letter-spacing:normal;word-spacing:normal;text-transform:none;direction:ltr;block-progression:tb;writing-mode:lr-tb;baseline-shift:baseline;text-anchor:start;white-space:normal;clip-rule:nonzero;display:inline;overflow:visible;visibility:visible;opacity:1;isolation:auto;mix-blend-mode:normal;color-interpolation:sRGB;color-interpolation-filters:linearRGB;solid-color:#000000;solid-opacity:1;fill:#fbbc05;fill-opacity:1;fill-rule:nonzero;stroke:none;stroke-width:6;stroke-linecap:square;stroke-linejoin:miter;stroke-miterlimit:4;stroke-dasharray:none;stroke-dashoffset:0;stroke-opacity:1;color-rendering:auto;image-rendering:auto;shape-rendering:auto;text-rendering:auto;enable-background:accumulate"
     d="M 5.187446,6.1328125 C 4.3250037,7.1276355 3.6610459,8.318882 3.2987743,9.670899 c -0.189153,0.705928 -0.2827526,1.414766 -0.2958984,2.115234 -0.004,0.137262 -0.00334,0.275063 -9.75e-4,0.413086 0.012071,0.705241 0.1064004,1.419022 0.296875,2.129883 0.3622716,1.352015 1.0252528,2.543262 1.8876951,3.538085 l 1.84961,-2.487304 C 6.667647,14.836218 6.3766005,14.225857 6.1962365,13.552735 6.0809555,13.122499 6.022328,12.692421 6.003854,12.266602 c -0.00405,-0.09336 -0.00899,-0.186277 -0.00879,-0.280274 1.29e-4,-0.05532 0.00425,-0.109935 0.00586,-0.165039 C 6.014089,11.366937 6.074008,10.907075 6.197213,10.447266 6.377576,9.774142 6.6676485,9.163783 7.036081,8.620117 L 5.187446,6.1328125 Z"
     id="path4282"
     inkscape:connector-curvature="0" /><path
     style="color:#000000;font-style:normal;font-variant:normal;font-weight:normal;font-stretch:normal;font-size:medium;line-height:normal;font-family:sans-serif;text-indent:0;text-align:start;text-decoration:none;text-decoration-line:none;text-decoration-style:solid;text-decoration-color:#000000;letter-spacing:normal;word-spacing:normal;text-transform:none;direction:ltr;block-progression:tb;writing-mode:lr-tb;baseline-shift:baseline;text-anchor:start;white-space:normal;clip-rule:nonzero;display:inline;overflow:visible;visibility:visible;opacity:1;isolation:auto;mix-blend-mode:normal;color-interpolation:sRGB;color-interpolation-filters:linearRGB;solid-color:#000000;solid-opacity:1;fill:#34a853;fill-opacity:1;fill-rule:nonzero;stroke:none;stroke-width:6;stroke-linecap:square;stroke-linejoin:miter;stroke-miterlimit:4;stroke-dasharray:none;stroke-dashoffset:0;stroke-opacity:1;color-rendering:auto;image-rendering:auto;shape-rendering:auto;text-rendering:auto;enable-background:accumulate"
     d="M 6.3296875,13.982422 3.9,15.90625 C 5.361069,18.912129 8.438711,21 11.991797,21 c 0.722642,0 1.423602,-0.09295 2.097656,-0.25586 0.01195,-0.0029 0.0242,-0.0049 0.03614,-0.0078 0.0039,-9.5e-4 0.0078,-0.002 0.01172,-0.003 0.120227,-0.02976 0.239124,-0.06211 0.357422,-0.09668 0.172642,-0.04909 0.343946,-0.103076 0.514648,-0.163086 0.0116,-0.0041 0.02356,-0.0066 0.03515,-0.01074 0.0019,-7e-4 0.0039,-0.0013 0.0059,-0.002 0.491201,-0.175385 0.973165,-0.39624 1.44043,-0.666016 1.212184,-0.699855 2.191002,-1.648723 2.928711,-2.739258 L 16.538712,15.913 c -0.422026,0.487627 -0.927139,0.918332 -1.516601,1.263672 -0.01764,0.01031 -0.03498,0.02111 -0.05274,0.03125 -0.295117,0.168778 -0.597223,0.309936 -0.905273,0.422851 -0.1538,0.05638 -0.308959,0.105123 -0.464844,0.148438 -0.0133,0.0037 -0.0267,0.0071 -0.04004,0.01074 -0.13435,0.03636 -0.26995,0.06664 -0.405273,0.09375 C 12.778148,17.957536 12.390465,18 11.991797,18 9.357191,18 7.143156,16.328296 6.3296875,13.982422 Z"
     id="path4231"
     inkscape:connector-curvature="0" /><path
     style="color:#000000;font-style:normal;font-variant:normal;font-weight:normal;font-stretch:normal;font-size:medium;line-height:normal;font-family:sans-serif;text-indent:0;text-align:start;text-decoration:none;text-decoration-line:none;text-decoration-style:solid;text-decoration-color:#000000;letter-spacing:normal;word-spacing:normal;text-transform:none;direction:ltr;block-progression:tb;writing-mode:lr-tb;baseline-shift:baseline;text-anchor:start;white-space:normal;clip-rule:nonzero;display:inline;overflow:visible;visibility:visible;opacity:1;isolation:auto;mix-blend-mode:normal;color-interpolation:sRGB;color-interpolation-filters:linearRGB;solid-color:#000000;solid-opacity:1;fill:#4285f4;fill-opacity:1;fill-rule:nonzero;stroke:none;stroke-width:6;stroke-linecap:square;stroke-linejoin:miter;stroke-miterlimit:4;stroke-dasharray:none;stroke-dashoffset:0;stroke-opacity:1;color-rendering:auto;image-rendering:auto;shape-rendering:auto;text-rendering:auto;enable-background:accumulate"
     d="m 12,10.5 0,3 5.810547,0 c -0.381182,1.49274 -1.316975,2.754519 -2.579101,3.558594 l 2.429687,1.922851 C 19.694357,17.328232 21,14.811156 21,12 c 0,-0.511984 -0.05369,-1.01084 -0.136719,-1.5 -2.954427,0 -5.908854,0 -8.863281,0 z"
     id="path4241"
     inkscape:connector-curvature="0"
     sodipodi:nodetypes="cccccscc" /><path
     style="color:#000000;font-style:normal;font-variant:normal;font-weight:normal;font-stretch:normal;font-size:medium;line-height:normal;font-family:sans-serif;text-indent:0;text-align:start;text-decoration:none;text-decoration-line:none;text-decoration-style:solid;text-decoration-color:#000000;letter-spacing:normal;word-spacing:normal;text-transform:none;direction:ltr;block-progression:tb;writing-mode:lr-tb;baseline-shift:baseline;text-anchor:start;white-space:normal;clip-rule:nonzero;display:inline;overflow:visible;visibility:visible;opacity:1;isolation:auto;mix-blend-mode:normal;color-interpolation:sRGB;color-interpolation-filters:linearRGB;solid-color:#000000;solid-opacity:1;fill:#ea4335;fill-opacity:1;fill-rule:nonzero;stroke:none;stroke-width:6;stroke-linecap:square;stroke-linejoin:miter;stroke-miterlimit:4;stroke-dasharray:none;stroke-dashoffset:0;stroke-opacity:1;color-rendering:auto;image-rendering:auto;shape-rendering:auto;text-rendering:auto;enable-background:accumulate"
     d="M 11.991797,3 C 8.438711,3 5.361069,5.0878705 3.9,8.09375 l 2.4296875,1.923828 C 7.143156,7.6717035 9.357191,6 11.991797,6 c 1.53745,0 2.929359,0.573157 3.987305,1.5126955 L 18.0875,5.404297 C 16.480906,3.9179095 14.341507,3 11.991797,3 Z"
     id="path4248"
     inkscape:connector-curvature="0"
     sodipodi:nodetypes="sccsccs" /></svg>

<!-- Generator: Adobe Illustrator 18.1.1, SVG Export Plug-In . SVG Version: 6.00 Build 0)  -->
<svg xmlns="http://www.w3.org/2000/svg" viewBox="0 0 24 24" style="enable-background:new 0 0 400 400">
 <path d="m 5.187 6.133 c -0.862 0.995 -1.526 2.186 -1.889 3.538 c -0.189 0.706 -0.283 1.415 -0.296 2.115 -0.004 0.137 -0.003 0.275 -0.001 0.413 0.012 0.705 0.106 1.419 0.297 2.13 0.362 1.352 1.025 2.543 1.888 3.538 l 1.85 -2.487 c -0.368 -0.544 -0.659 -1.154 -0.84 -1.827 -0.115 -0.43 -0.174 -0.86 -0.192 -1.286 c -0.004 -0.093 -0.009 -0.186 -0.009 -0.28 0 -0.055 0.004 -0.11 0.006 -0.165 c 0.013 -0.454 0.073 -0.914 0.196 -1.374 0.18 -0.673 0.47 -1.283 0.839 -1.827 l -1.849 -2.487" mix-blend-mode="normal" isolation="auto" white-space="normal" solid-opacity="1" solid-color="#000000" style="visibility:visible;shape-rendering:auto;color-interpolation-filters:linearRGB;fill:#fbbc05;opacity:1;image-rendering:auto;fill-opacity:1;stroke:none;display:inline;color:#000;fill-rule:nonzero;color-rendering:auto;color-interpolation:sRGB"/>
 <path d="m 6.33 13.982 -2.43 1.924 c 1.461 3.01 4.539 5.094 8.092 5.094 c 0.723 0 1.424 -0.093 2.098 -0.256 0.012 -0.003 0.024 -0.005 0.036 -0.008 0.004 -0.001 0.008 -0.002 0.012 -0.003 0.12 -0.03 0.239 -0.062 0.357 -0.097 0.173 -0.049 0.344 -0.103 0.515 -0.163 0.012 -0.004 0.024 -0.007 0.035 -0.011 0.002 -0.001 0.004 -0.001 0.006 -0.002 0.491 -0.175 0.973 -0.396 1.44 -0.666 1.212 -0.7 2.191 -1.649 2.929 -2.739 l -2.881 -1.143 c -0.422 0.488 -0.927 0.918 -1.517 1.264 -0.018 0.01 -0.035 0.021 -0.053 0.031 -0.295 0.169 -0.597 0.31 -0.905 0.423 -0.154 0.056 -0.309 0.105 -0.465 0.148 -0.013 0.004 -0.027 0.007 -0.04 0.011 -0.134 0.036 -0.27 0.067 -0.405 0.094 c -0.376 0.074 -0.763 0.116 -1.162 0.116 -2.635 0 -4.849 -1.672 -5.662 -4.02" mix-blend-mode="normal" isolation="auto" white-space="normal" solid-opacity="1" solid-color="#000000" style="visibility:visible;shape-rendering:auto;color-interpolation-filters:linearRGB;fill:#34a853;opacity:1;image-rendering:auto;fill-opacity:1;stroke:none;display:inline;color:#000;fill-rule:nonzero;color-rendering:auto;color-interpolation:sRGB"/>
 <path d="m 12 10.5 0 3 5.811 0 c -0.381 1.493 -1.317 2.755 -2.579 3.559 l 2.43 1.923 c 2.033 -1.653 3.339 -4.17 3.339 -6.981 c 0 -0.512 -0.054 -1.01 -0.137 -1.5 -2.954 0 -5.909 0 -8.863 0 z" mix-blend-mode="normal" isolation="auto" white-space="normal" solid-opacity="1" solid-color="#000000" style="visibility:visible;shape-rendering:auto;color-interpolation-filters:linearRGB;fill:#4285f4;opacity:1;image-rendering:auto;fill-opacity:1;stroke:none;display:inline;color:#000;fill-rule:nonzero;color-rendering:auto;color-interpolation:sRGB"/>
 <path d="m 11.992 3 c -3.553 0 -6.631 2.088 -8.092 5.094 l 2.43 1.924 c 0.813 -2.346 3.03 -4.02 5.662 -4.02 c 1.537 0 2.929 0.573 3.987 1.513 l 2.108 -2.108 c -1.607 -1.486 -3.746 -2.404 -6.096 -2.404" mix-blend-mode="normal" isolation="auto" white-space="normal" solid-opacity="1" solid-color="#000000" style="visibility:visible;shape-rendering:auto;color-interpolation-filters:linearRGB;fill:#ea4335;opacity:1;image-rendering:auto;fill-opacity:1;stroke:none;display:inline;color:#000;fill-rule:nonzero;color-rendering:auto;color-interpolation:sRGB"/>
</svg>
